src/images/linkedin.svg

<svg enable-background="new 0 0 430.117 430.117" height="430.117" viewBox="0 0 430.117 430.117" width="430.117" xmlns="http://www.w3.org/2000/svg"><path d="m430.117 261.543v159.017h-92.188v-148.367c0-37.271-13.334-62.707-46.703-62.707-25.473 0-40.632 17.142-47.301 33.724-2.432 5.928-3.058 14.179-3.058 22.477v154.873h-92.219s1.242-251.285 0-277.32h92.21v39.309c-.187.294-.43.611-.606.896h.606v-.896c12.251-18.869 34.13-45.824 83.102-45.824 60.673-.001 106.157 39.636 106.157 124.818zm-377.934-251.985c-31.548 0-52.183 20.693-52.183 47.905 0 26.619 20.038 47.94 50.959 47.94h.616c32.159 0 52.159-21.317 52.159-47.94-.606-27.212-20-47.905-51.551-47.905zm-46.706 411.002h92.184v-277.32h-92.184z"/></svg>

<?xml version="1.0"?>
<svg xmlns="http://www.w3.org/2000/svg" xmlns:xlink="http://www.w3.org/1999/xlink" version="1.1" id="Capa_1" x="0px" y="0px" width="512px" height="512px" viewBox="0 0 430.117 430.117" style="enable-background:new 0 0 430.117 430.117;" xml:space="preserve" class=""><g transform="matrix(0.922745 0 0 0.922745 16.6144 16.6144)"><g>
	<path id="LinkedIn" d="M430.117,261.543V420.56h-92.188V272.193c0-37.271-13.334-62.707-46.703-62.707   c-25.473,0-40.632,17.142-47.301,33.724c-2.432,5.928-3.058,14.179-3.058,22.477V420.56h-92.219c0,0,1.242-251.285,0-277.32h92.21   v39.309c-0.187,0.294-0.43,0.611-0.606,0.896h0.606v-0.896c12.251-18.869,34.13-45.824,83.102-45.824   C384.633,136.724,430.117,176.361,430.117,261.543z M52.183,9.558C20.635,9.558,0,30.251,0,57.463   c0,26.619,20.038,47.94,50.959,47.94h0.616c32.159,0,52.159-21.317,52.159-47.94C103.128,30.251,83.734,9.558,52.183,9.558z    M5.477,420.56h92.184v-277.32H5.477V420.56z" data-original="#000000" class="active-path" data-old_color="#576ddb" fill="#576ddb"/>
</g></g> </svg>
